X: 17282
T: Hermione's
R: jig
M: 6/8
K: Dminor
=B|:cAG FEC|FED E3|DCD EDC|FGF E3|
Ade fed|ecA BAG|A2d cAG|1 A=Bc d3:|2 A=Bc d2E||
|:FED d2e|fed cAF|CEG c2d|edc BAG|
FEF GFG|ABA GEC|F2d cAG|1 A=Bc d2E:|2 A=Bc d3||

